X:1
T:Rimsky-Korsakov Harmonic Exercises, Suspensions (2)
T:Rimsky-Korsakov Harmonic Exercises, Suspensions (2)
T:"Practical Manual of Harmony" (1885)
T:Upward suspensions
T:The tone in which the upward suspension is resolved must not exist in another voice above the suspension. In a lower voice, this tone may exist, but not in the Alto and not in the sixth chord. 
%%score { ( 1 2 5 ) | ( 3 4 ) }
L:1/8
Q:1/2=80
M:2/1
K:C
V:1 treble nm="Piano" snm="Pno."
V:2 treble 
V:5 treble 
V:3 bass 
V:4 bass 
V:1
"^Bad:""^Examples by Rimsky-Korsakov:" (d8 !breath!c8) |]"^Good:" (B8- B4 !breath!c4) |] %2
"^Bad:" (B8- B4 !breath!c4) |]"^Bad:" (B8- B4 !breath!c4) |] %4
"^Double and triple suspensions""^Good:" (c8 !breath!c8) |]"^Good:" (G8 !breath!G8) |] %6
"^Good:" (B8- B4 !breath!c4) |]"^Good:" (d8- d4 !breath!c4) |] %8
"^Sometimes the suspensions are wrong individually, when they are accompanied they become correct.""^Bad:" (d8- d4 !breath!c4) |] %9
"^Bad:" (d8 !breath!c8) |]"^Good:" (d8- d4 !breath!c4) |] %11
[M:4/4]""[Q:1/4=80]"^Example by Rimsky-Korsakov (""^passing tones""^suspensions""^auxiliary tones""^,""^,""^):" (c4"" e4- | %12
"" e4 d2"" c2- |"" c2"" B2"" c2"" d2 |"""""" d8- |"" d6"" c2 |"""" c8- |"" c4-"" c2[Q:1/4=80] B2- | %18
""[Q:1/4=64]"^.7" B2[Q:1/4=56]"^.9" !breath!c6)[Q:1/4=50]"^.5" |] %19
[M:4/1]""[Q:1/2=100]"^These suspensions can be interpreted as incomplete eleventh chord and thirteenth chord:""_C:" (c8-"" c8"" B8"" !breath!c8) |] %20
[M:5/1]"""_C:" (e8-"" e8-"" e8""""[Q:1/2=90] d8[Q:1/2=72]""[Q:1/2=63]"^.6" !breath!c8) |] %21
[M:4/4][Q:1/2=50]"^Good cross-relation""^With chromatic modulation in a minor key, with an deceptive cadence in a major key,\nwith a half-cadence in a minor key, with a chromatic passing note, etc., a suspension of\na diminished octave or an augmented unison may be formed.\n" (B8 | %22
 !breath!A8) |] (d4- =d2 c2 | !breath!B8) |] %25
[M:3/2] (G4[Q:1/4=70] ^G4[Q:1/4=56][Q:1/4=50]"^.2" !breath!A4) |] %26
V:2
 (G8 E8) |] (F8 E8) |] (D8 C8) |] (G8 G8) |] (F8- F4 E4) |] (F8- F4 E4) |] (F8- F4 E4) |] %7
 (F8- F4 E4) |] (G8 G8) |] (G8 G8) |] (G8 G8) |][M:4/4] (E2 F2 G4- | G2 A2 F2 E2 | D4 G2 F2- | %14
 F2 G4 F2- | F2 ED E4- | E4 D2 F2- | F2 E2- E2 D2- | D2 C6) |][M:4/1] (A8- A8 G8 G8) |] %20
[M:5/1] (c8- c8- c8 B8 c8) |][M:4/4] (G4- =G2 F2 | E8) |] (F4 ^F4 | ^G8) |] %25
[M:3/2] (G4- =G2"^.9" F2 E4) |] %26
V:3
 (B,8- B,4 C4) |] (D8 C8) |] (G,8 E,8) |] (D8 C8) |] (A,8- A,4 G,4) |] (D8- D4 C4) |] (G,8 G,8) |] %7
 (B,8- B,4 C4) |] (B,8 C8) |] (B,8- B,4 C4) |] (B,8- B,4 C4) |][M:4/4] (C6 B,2 | A,8- | %13
 A,2 G,4 A,2 | B,4 G,4- | G,6 C2 | A,6 _A,2- | A,2 G,2 F,4- | F,4 E,4) |][M:4/1] (F8- F8- F8 E8) |] %20
[M:5/1] (E8 F8- F8- F8 E8) |][M:4/4] (D8 | C8) |] (A,8 | ^G,8) |][M:3/2] (D8 C4) |] %26
V:4
 (G,8 C,8) |] (G,8 C,8) |] (G,,8 C,8) |] (F,8 E,8) |] (F,8 C,8) |] (B,,8 C,8) |] (G,,8 C,8) |] %7
 (G,8 C,8) |] (F,8 E,8) |] (F,8 E,8) |] (F,8 E,8) |][M:4/4] (C,8 | F,,6 D,2 | G,,2 F,2 E,2 D,2 | %14
 G,,4 B,,4 | C,6 A,,2 | F,,8 | G,,8 | C,8) |][M:4/1] (F,8 G,8 G,8 C,8) |] %20
[M:5/1] (C,8 F,8 G,8- G,8 C,8) |][M:4/4] (G,4 ^G,4 | A,8) |] (D,4 ^D,4 | E,8) |] %25
[M:3/2] (B,,8 C,4) |] %26
V:5
 x16 |] x16 |] x16 |] x16 |] x16 |] x16 |] x16 |] x16 |] x16 |] x16 |] x16 |][M:4/4] x8 | x8 | x8 | %14
 x8 | x8 | x8 | x8 | x8 |][M:4/1] x32 |][M:5/1] (G8 A8- A8- A4"^.5" G4 G8) |][M:4/4] x8 | x8 |] %23
 x8 | x8 |][M:3/2] x12 |] %26

